// =====================================================================
// SuperCollider Workspace
// =====================================================================


Pdef(\drums,
	Pdef(\_midi) <> (midiout:MIDIOut(0)) <>
	Pbind(
		\midinote, [40,40,50,40].pseq(inf)
	)
).quant_(4)


	